packages/tokens/icons/robot/size24Px.svg

<svg viewBox="0 0 24 24" fill="none" xmlns="http://www.w3.org/2000/svg" width="1em" height="1em"><circle cx="8" cy="12" r="0.5" stroke="currentColor"/><circle cx="16" cy="12" r="0.5" stroke="currentColor"/><path d="M10 13.5C10 13.5 10.5 14.5 12 14.5C13.5 14.5 14 13.5 14 13.5" stroke="currentColor" stroke-linecap="round" stroke-linejoin="round"/><path d="M4.5 10.5H3.5C2.94772 10.5 2.5 10.9477 2.5 11.5L2.5 13.8636C2.5 14.4159 2.94772 14.8636 3.5 14.8636H4.5" stroke="currentColor"/><path d="M20 10.5H20.5C21.0523 10.5 21.5 10.9477 21.5 11.5V13.8636C21.5 14.4159 21.0523 14.8636 20.5 14.8636H20" stroke="currentColor"/><circle cx="12" cy="3.5" r="1" stroke="currentColor"/><line x1="12" y1="4" x2="12" y2="6" stroke="currentColor"/><path d="M4.5 8.5L4.5 16.5C4.5 17.6046 5.39543 18.5 6.5 18.5H17.5C18.6046 18.5 19.5 17.6046 19.5 16.5V8.5C19.5 7.39543 18.6046 6.5 17.5 6.5L6.5 6.5C5.39543 6.5 4.5 7.39543 4.5 8.5Z" stroke="currentColor"/></svg>

<svg xmlns="http://www.w3.org/2000/svg" fill="none" viewBox="0 0 24 24" width="1em" height="1em"><circle cx="8" cy="12" r=".5" stroke="currentColor"/><circle cx="16" cy="12" r=".5" stroke="currentColor"/><path stroke="currentColor" stroke-linecap="round" stroke-linejoin="round" d="M10 13.5s.5 1 2 1 2-1 2-1"/><path stroke="currentColor" d="M4.5 10.5h-1a1 1 0 0 0-1 1v2.364a1 1 0 0 0 1 1h1M20 10.5h.5a1 1 0 0 1 1 1v2.364a1 1 0 0 1-1 1H20"/><circle cx="12" cy="3.5" r="1" stroke="currentColor"/><path stroke="currentColor" d="M12 4v2M4.5 8.5v8a2 2 0 0 0 2 2h11a2 2 0 0 0 2-2v-8a2 2 0 0 0-2-2h-11a2 2 0 0 0-2 2Z"/></svg>
